web/front/img/logo.svg

<svg width="40" height="40" viewBox="0 0 40 40" fill="none" xmlns="http://www.w3.org/2000/svg">
<g clip-path="url(#clip0_18_426)">
<path d="M17.3484 19.3046H13.2942C13.2647 19.3046 13.2311 19.3046 13.2017 19.3003C12.7096 19.275 12.2638 19.0636 11.9358 18.7339C11.5909 18.3873 11.3764 17.9097 11.3722 17.3855V13.3572C11.3722 13.3234 11.3722 13.2938 11.3722 13.2642C11.3974 12.7696 11.6077 12.3216 11.9358 11.9919C12.2806 11.6453 12.7559 11.4297 13.2774 11.4255H20.3471C20.4144 11.4255 20.4606 11.4255 20.5069 11.4255C21.2176 11.4255 21.7938 10.859 21.7938 10.1447C21.7938 9.43032 21.2176 8.85123 20.5069 8.85123C20.4985 8.85123 20.4901 8.85123 20.4817 8.85123H13.2774V8.84277C10.8044 8.85545 8.80255 10.8675 8.79834 13.3572V13.4925V17.4024C8.81937 19.8794 10.8213 21.883 13.29 21.8873H13.3068H25.8901C25.9196 21.8873 25.9532 21.8873 25.9827 21.8915C26.4747 21.9169 26.9205 22.1282 27.2486 22.4579C27.5934 22.8045 27.8079 23.2822 27.8121 23.8063V27.4246C27.8121 27.4584 27.8121 27.488 27.8121 27.5176C27.7869 28.0122 27.5766 28.4602 27.2486 28.7899C26.9037 29.1366 26.4285 29.3521 25.907 29.3564H25.8186H10.1526C10.1315 29.3564 10.1105 29.3564 10.0853 29.3564C9.37451 29.3564 8.79834 29.9355 8.79834 30.6498C8.79834 31.3642 9.37451 31.9348 10.0853 31.9348C10.1399 31.9348 10.1904 31.9348 10.2409 31.9348H25.9196C28.3841 31.9137 30.3776 29.9016 30.3818 27.4204V27.2978V23.7133C30.3229 21.2997 28.3841 19.3595 25.9827 19.3088H17.3484V19.3046Z" fill="white"/>
<path d="M40 35.4983V13.3488C39.9874 10.876 38.0023 8.86822 35.542 8.84709H29.0401C29.0401 8.84709 29.0274 8.84709 29.019 8.84709C28.3083 8.84709 27.7321 9.42619 27.7321 10.1405C27.7321 10.8549 28.3083 11.4213 29.019 11.4213C29.0737 11.4213 29.1284 11.4213 29.1788 11.4213H35.5126C35.542 11.4213 35.5757 11.4213 35.6051 11.4256C36.0972 11.4509 36.5429 11.6623 36.871 11.992C37.2159 12.3386 37.4303 12.812 37.4388 13.3404V13.3573V17.4448V35.4814C37.4388 35.5152 37.4388 35.5448 37.4388 35.5743C37.4135 36.0689 37.1906 36.517 36.8626 36.8467C36.5387 37.1721 36.1014 37.3793 35.6177 37.4131H4.49585C4.46641 37.4131 4.43276 37.4131 4.40332 37.4089C3.91126 37.3835 3.46546 37.1721 3.13742 36.8424C2.79256 36.4958 2.57807 36.0182 2.57386 35.494H2.56545V4.51442H2.58227C2.58227 4.48061 2.58227 4.45102 2.58227 4.4172C2.60751 3.92265 2.81779 3.47459 3.14583 3.14488C3.4907 2.79827 3.96593 2.58269 4.48744 2.57846H8.55431H38.7383C39.4322 2.56156 39.9916 1.99091 39.9916 1.28923C39.9916 0.587552 39.4322 0.016908 38.7383 0H4.47902C2.0103 0.016908 0.0168226 2.03318 0.012617 4.51442H0V35.4983H0.00841131C0.0210283 37.9626 1.99348 39.962 4.44117 39.9958H35.5126V40.0042C37.9813 39.9915 39.9958 37.9837 40 35.4983Z" fill="white"/>
</g>
<defs>
<clipPath id="clip0_18_426">
<rect width="40" height="40" fill="white"/>
</clipPath>
</defs>
</svg>

<svg width="40" height="40" fill="none" xmlns="http://www.w3.org/2000/svg"><g clip-path="url(#a)" fill="#fff"><path d="M17.348 19.305h-4.054c-.03 0-.063 0-.092-.005a1.931 1.931 0 0 1-1.83-1.915V13.265c.025-.494.236-.942.564-1.272.345-.347.82-.562 1.341-.567h7.23a1.28 1.28 0 0 0 1.287-1.28 1.29 1.29 0 0 0-1.287-1.294h-7.23v-.008c-2.473.012-4.474 2.024-4.479 4.514v4.046c.021 2.476 2.023 4.48 4.492 4.484h12.6c.03 0 .063 0 .093.005a1.931 1.931 0 0 1 1.83 1.915v3.711a1.942 1.942 0 0 1-.564 1.272c-.345.347-.82.562-1.342.566H10.085a1.29 1.29 0 0 0 0 2.579H25.92c2.464-.021 4.458-2.033 4.462-4.515v-3.707c-.06-2.413-1.998-4.354-4.4-4.404h-8.634v-.004Z"/><path d="M40 35.498v-22.15c-.013-2.472-1.998-4.48-4.458-4.5h-6.523c-.71 0-1.287.578-1.287 1.292 0 .715.576 1.281 1.287 1.281h6.494c.029 0 .063 0 .092.005a1.946 1.946 0 0 1 1.834 1.915v22.233a1.956 1.956 0 0 1-.576 1.273 1.942 1.942 0 0 1-1.245.566H4.496c-.03 0-.063 0-.093-.004a1.931 1.931 0 0 1-1.83-1.915h-.008V4.514h.017v-.097c.026-.494.236-.942.564-1.272.345-.347.82-.562 1.341-.567H38.738a1.288 1.288 0 0 0 1.254-1.289c0-.701-.56-1.272-1.254-1.289H4.48C2.01.017.017 2.033.013 4.514H0v30.984h.008c.013 2.465 1.985 4.464 4.433 4.498h31.072v.008A4.516 4.516 0 0 0 40 35.498Z"/></g><defs><clipPath id="a"><path fill="#fff" d="M0 0h40v40H0z"/></clipPath></defs></svg>
